packages/assets/static/images/icons/gauge.svg

<svg width="24" height="24" viewBox="0 0 24 24" xmlns="http://www.w3.org/2000/svg">
<path d="M19.4119 7.93785C18.4397 6.96346 17.2842 6.19117 16.0121 5.66549C14.74 5.13982 13.3764 4.87117 12 4.87504H11.9625C6.19406 4.89473 1.5 9.65629 1.5 15.481V17.625C1.5 18.0229 1.65804 18.4044 1.93934 18.6857C2.22064 18.967 2.60218 19.125 3 19.125H21C21.3978 19.125 21.7794 18.967 22.0607 18.6857C22.342 18.4044 22.5 18.0229 22.5 17.625V15.375C22.5039 13.9926 22.2328 12.6232 21.7027 11.3464C21.1725 10.0696 20.3938 8.91098 19.4119 7.93785ZM21 17.625H11.2228L16.3566 10.5657C16.4737 10.4048 16.5221 10.204 16.4911 10.0074C16.4602 9.81087 16.3524 9.63465 16.1916 9.51754C16.0307 9.40043 15.8299 9.35202 15.6333 9.38297C15.4368 9.41391 15.2605 9.52167 15.1434 9.68254L9.3675 17.625H3V15.481C3 15.1922 3.01406 14.9072 3.04031 14.625H5.25C5.44891 14.625 5.63968 14.546 5.78033 14.4054C5.92098 14.2647 6 14.074 6 13.875C6 13.6761 5.92098 13.4854 5.78033 13.3447C5.63968 13.2041 5.44891 13.125 5.25 13.125H3.30656C4.27406 9.48192 7.43156 6.72754 11.25 6.40692V8.62504C11.25 8.82395 11.329 9.01472 11.4697 9.15537C11.6103 9.29602 11.8011 9.37504 12 9.37504C12.1989 9.37504 12.3897 9.29602 12.5303 9.15537C12.671 9.01472 12.75 8.82395 12.75 8.62504V6.40598C14.6106 6.56256 16.3767 7.29313 17.8042 8.49675C19.2316 9.70037 20.2501 11.3176 20.7188 13.125H18.75C18.5511 13.125 18.3603 13.2041 18.2197 13.3447C18.079 13.4854 18 13.6761 18 13.875C18 14.074 18.079 14.2647 18.2197 14.4054C18.3603 14.546 18.5511 14.625 18.75 14.625H20.9691C20.9888 14.8735 21 15.1229 21 15.375V17.625Z"/>
</svg>

<svg viewBox="0 0 24 24" xmlns="http://www.w3.org/2000/svg" aria-hidden="true" fill="currentColor"><path d="M19.412 7.938A10.43 10.43 0 0 0 12 4.875h-.037C6.194 4.895 1.5 9.656 1.5 15.481v2.144a1.5 1.5 0 0 0 1.5 1.5h18a1.5 1.5 0 0 0 1.5-1.5v-2.25a10.43 10.43 0 0 0-3.088-7.437M21 17.625h-9.777l5.134-7.06a.75.75 0 0 0-1.214-.882l-5.776 7.942H3v-2.144q0-.433.04-.856h2.21a.75.75 0 1 0 0-1.5H3.307c.967-3.643 4.125-6.397 7.943-6.718v2.218a.75.75 0 1 0 1.5 0V6.406a9.01 9.01 0 0 1 7.969 6.719H18.75a.75.75 0 0 0 0 1.5h2.22q.03.372.03.75z"/></svg>
